icons/EyeClosed.svg

<svg width="24" height="24" viewBox="0 0 24 24" fill="none" xmlns="http://www.w3.org/2000/svg">
<path fill-rule="evenodd" clip-rule="evenodd" d="M2.66457,11.3292c0.37048,-0.1853 0.82099,-0.0351 1.00623,0.3354l0.00134,0.0026c0.4787,0.9575 2.54134,5.0828 8.32786,5.0828c5.7865,0 7.8491,-4.1253 8.3278,-5.0828l0.0014,-0.0026c0.1852,-0.3705 0.6357,-0.5207 1.0062,-0.3354c0.3705,0.1852 0.5206,0.6357 0.3354,1.0062c-0.2476,0.4952 -0.9231,1.8437 -2.2751,3.1283l2.2146,3.1004c0.2407,0.337 0.1627,0.8054 -0.1744,1.0462c-0.337,0.2407 -0.8055,0.1627 -1.0462,-0.1744l-2.1583,-3.0215c-0.8212,0.5724 -1.8127,1.0765 -3.002,1.4109c0.004,0.0168 0.0075,0.034 0.0104,0.0514l0.5,3c0.0681,0.4086 -0.2079,0.795 -0.6165,0.8631c-0.4086,0.0681 -0.795,-0.2079 -0.8631,-0.6165l-0.4988,-2.9924c-0.5515,0.077 -1.138,0.1191 -1.7614,0.1191c-0.6234,0 -1.2099,-0.0421 -1.7615,-0.1191l-0.49872,2.9924c-0.0681,0.4086 -0.45452,0.6846 -0.8631,0.6165c-0.40858,-0.0681 -0.68459,-0.4545 -0.61649,-0.8631l0.5,-3c0.00289,-0.0174 0.00637,-0.0346 0.0104,-0.0514c-1.18931,-0.3344 -2.18084,-0.8385 -3.00207,-1.4109l-2.15824,3.0215c-0.24076,0.3371 -0.70917,0.4151 -1.04623,0.1744c-0.33706,-0.2408 -0.41513,-0.7092 -0.17437,-1.0462l2.21456,-3.1004c-1.352,-1.2846 -2.02749,-2.6331 -2.27508,-3.1283c-0.18524,-0.3705 -0.03507,-0.821 0.33541,-1.0062z" fill="#002B51"/>
</svg>

<svg width="24" height="24" viewBox="0 0 24 24" fill="none" xmlns="http://www.w3.org/2000/svg">
<path fill-rule="evenodd" clip-rule="evenodd" d="M2.66457 11.3292C3.03505 11.1439 3.48556 11.2941 3.6708 11.6646L3.67214 11.6672C4.15084 12.6247 6.21348 16.75 12 16.75C17.7865 16.75 19.8491 12.6247 20.3278 11.6672L20.3292 11.6646C20.5144 11.2941 20.9649 11.1439 21.3354 11.3292C21.7059 11.5144 21.856 11.9649 21.6708 12.3354C21.4232 12.8306 20.7477 14.1791 19.3957 15.4637L21.6103 18.5641C21.851 18.9011 21.773 19.3695 21.4359 19.6103C21.0989 19.851 20.6304 19.773 20.3897 19.4359L18.2314 16.4144C17.4102 16.9868 16.4187 17.4909 15.2294 17.8253C15.2334 17.8421 15.2369 17.8593 15.2398 17.8767L15.7398 20.8767C15.8079 21.2853 15.5319 21.6717 15.1233 21.7398C14.7147 21.8079 14.3283 21.5319 14.2602 21.1233L13.7614 18.1309C13.2099 18.2079 12.6234 18.25 12 18.25C11.3766 18.25 10.7901 18.2079 10.2385 18.1309L9.73978 21.1233C9.67168 21.5319 9.28526 21.8079 8.87668 21.7398C8.4681 21.6717 8.19209 21.2853 8.26019 20.8767L8.76019 17.8767C8.76308 17.8593 8.76656 17.8421 8.77059 17.8253C7.58128 17.4909 6.58975 16.9868 5.76852 16.4144L3.61028 19.4359C3.36952 19.773 2.90111 19.851 2.56405 19.6103C2.22699 19.3695 2.14892 18.9011 2.38968 18.5641L4.60424 15.4637C3.25224 14.1791 2.57675 12.8306 2.32916 12.3354C2.14392 11.9649 2.29409 11.5144 2.66457 11.3292Z" fill="#002B51"/>
</svg>
